source/img/cause-03.svg

<svg width="64" height="65" viewBox="0 0 64 65" fill="none" xmlns="http://www.w3.org/2000/svg">
<path d="M64 32.71C64 64.71 64 64.71 32 64.71C0 64.71 0 64.71 0 32.71C0 0.709961 0 0.709961 32 0.709961C64 0.709961 64 0.709961 64 32.71Z" fill="#F7B519"/>
<path fill-rule="evenodd" clip-rule="evenodd" d="M47 30.594C47 31.2284 46.4861 31.7426 45.8522 31.7426H45.8391C45.5335 31.7427 45.2409 31.6195 45.0273 31.4008C44.8138 31.1821 44.6974 30.8865 44.7045 30.5808V27.1087C44.7045 22.5409 42.1847 20.0193 37.6201 20.0193H26.3799C21.8021 20.0193 19.2955 22.5409 19.2955 27.1087V38.37C19.2955 42.9378 21.8153 45.4462 26.3799 45.4462H37.6201C42.1979 45.4462 44.7045 42.9246 44.7045 38.37C44.7045 37.7356 45.2184 37.2214 45.8522 37.2214C46.4861 37.2214 47 37.7356 47 38.37C47 44.1524 43.4116 47.7433 37.6332 47.7433H26.3799C20.5884 47.7433 17 44.1524 17 38.37V27.1087C17 21.3131 20.5884 17.7222 26.3799 17.7222H37.6201C43.3852 17.7222 47 21.3131 47 27.1087V30.594ZM24.4406 39.7693V30.2508V30.1583C24.4509 29.8548 24.5823 29.568 24.8054 29.3621C25.0285 29.1562 25.3248 29.0483 25.628 29.0626C25.9324 29.0729 26.2203 29.2039 26.4282 29.4268C26.636 29.6497 26.7468 29.9461 26.7361 30.2508V39.8486C26.7143 40.4829 26.1827 40.9794 25.5488 40.9575C24.9149 40.9356 24.4188 40.4037 24.4406 39.7693ZM30.905 25.7093V39.7825C30.905 40.4169 31.4189 40.9311 32.0528 40.9311C32.6867 40.9311 33.2005 40.4169 33.2005 39.7825V25.7093C33.2005 25.0749 32.6867 24.5607 32.0528 24.5607C31.4189 24.5607 30.905 25.0749 30.905 25.7093ZM37.2639 39.7695V35.2808C37.2639 34.6465 37.7777 34.1322 38.4116 34.1322C39.0455 34.1322 39.5594 34.6465 39.5594 35.2808V39.7695C39.5594 40.4038 39.0455 40.918 38.4116 40.918C37.7777 40.918 37.2639 40.4038 37.2639 39.7695Z" fill="#343A41"/>
</svg>

<svg width="64" height="65" fill="none" xmlns="http://www.w3.org/2000/svg"><path d="M64 32.71c0 32 0 32-32 32s-32 0-32-32 0-32 32-32 32 0 32 32z" fill="#F7B519"/><path fill-rule="evenodd" clip-rule="evenodd" d="M47 30.594c0 .634-.514 1.149-1.148 1.149h-.013a1.134 1.134 0 01-1.134-1.162v-3.472c0-4.568-2.52-7.09-7.085-7.09H26.38c-4.578 0-7.084 2.522-7.084 7.09V38.37c0 4.568 2.52 7.076 7.084 7.076h11.24c4.578 0 7.085-2.521 7.085-7.076a1.148 1.148 0 112.295 0c0 5.782-3.588 9.373-9.367 9.373H26.38c-5.792 0-9.38-3.59-9.38-9.373V27.109c0-5.796 3.588-9.387 9.38-9.387h11.24c5.765 0 9.38 3.591 9.38 9.387v3.485zm-22.56 9.175v-9.611a1.136 1.136 0 011.188-1.095 1.147 1.147 0 011.108 1.188v9.598a1.149 1.149 0 11-2.295-.08zm6.465-14.06v14.073a1.148 1.148 0 102.295 0V25.71a1.148 1.148 0 10-2.295 0zm6.359 14.06v-4.488a1.148 1.148 0 112.295 0v4.489a1.148 1.148 0 11-2.295 0z" fill="#343A41"/></svg>
